symbolic/22x22/apps/vk.svg

<svg xmlns="http://www.w3.org/2000/svg" width="22" height="22" version="1">
 <path style="opacity:0.2" d="M 10.131941,21.461533 C 9.7291579,21.426083 9.1772659,21.351108 8.905515,21.294863 7.9082166,21.088463 6.4421958,20.492719 5.6624398,19.976974 L 5.3548219,19.773509 3.7949093,20.26164 C 2.2696004,20.58905 2.0809364,20.586365 2.028092,20.23649 2.014667,20.147585 2.1107356,19.444165 2.3049599,18.68836 L 2.7061589,17.127134 2.501719,16.818369 C 1.917974,15.936741 1.3392901,14.441388 1.1311331,13.276691 0.95774914,12.306562 0.95604914,10.624999 1.1275331,9.7122884 1.901375,5.5934789 5.0884974,2.407941 9.2113029,1.6325371 c 0.9395851,-0.176713 2.6201121,-0.176713 3.5596981,0 3.589804,0.6751584 6.550086,3.2269054 7.706124,6.6426381 0.518556,1.5321712 0.665138,3.4694698 0.377932,4.9949158 -0.68853,3.657003 -3.315792,6.644638 -6.818985,7.754317 -1.285626,0.40724 -2.587081,0.55295 -3.904128,0.437115 z"/>
 <path style="fill:#3792e1" d="M 10.131941,20.961533 C 9.7291579,20.926083 9.1772659,20.851109 8.905515,20.794864 7.9082166,20.588464 6.4421958,19.992719 5.6624398,19.476974 L 5.3548219,19.273509 3.7949093,19.76164 C 2.2696004,20.08905 2.0809364,20.086365 2.028092,19.73649 2.014667,19.647585 2.1107356,18.944165 2.3049599,18.18836 L 2.7061589,16.627134 2.501719,16.318369 C 1.917974,15.436742 1.3392901,13.941388 1.1311331,12.776691 0.95774914,11.806562 0.95604914,10.124999 1.1275331,9.2122884 1.901375,5.093479 5.0884974,1.9079411 9.2113029,1.1325372 c 0.9395851,-0.17671296 2.6201121,-0.17671296 3.5596981,0 3.589804,0.6751584 6.550086,3.2269053 7.706124,6.642638 0.518556,1.5321712 0.665138,3.4694698 0.377932,4.9949158 -0.68853,3.657003 -3.315792,6.644638 -6.818985,7.754318 -1.285626,0.407239 -2.587081,0.552949 -3.904128,0.437114 z"/>
 <path style="opacity:0.2" d="m 11.755681,15.391284 c 0.149841,-0.06132 0.27677,-0.139241 0.282065,-0.173141 0.0053,-0.03391 0.03181,-0.421652 0.05892,-0.861661 0.03971,-0.644552 0.07606,-0.816482 0.187004,-0.884723 0.239515,-0.147326 0.814689,0.233977 1.728786,1.14606 l 0.848361,0.846495 0.970926,0.02535 c 0.92163,0.02408 0.976974,0.01689 1.090126,-0.141381 0.237972,-0.332805 -0.03441,-0.790451 -1.279911,-2.150239 -0.527315,-0.575714 -0.786343,-0.916489 -0.76303,-1.003824 0.01942,-0.07273 0.301433,-0.527012 0.626704,-1.009527 1.125351,-1.6693856 1.437628,-2.4197468 1.08414,-2.6050588 -0.203866,-0.106875 -1.597863,-0.1018275 -1.840952,0.00669 -0.130461,0.058229 -0.299923,0.3024604 -0.520605,0.7503022 -0.435704,0.8842186 -1.275191,2.1113686 -1.621243,2.3699206 -0.216015,0.161398 -0.308214,0.190228 -0.409207,0.127953 -0.112171,-0.06917 -0.135848,-0.29714 -0.169646,-1.633441 -0.03203,-1.2664674 -0.06102,-1.5666883 -0.157121,-1.6269783 -0.06559,-0.041195 -0.28607,-0.065433 -0.937283,-0.054769 -0.879613,0.014407 -1.3739321,0.034418 -1.4334301,0.193901 -0.03599,0.096451 0.17468,0.2439129 0.305568,0.4719967 0.2135261,0.372095 0.2159731,0.392163 0.2159731,1.7718456 0,1.234269 -0.0152,1.401202 -0.1315951,1.444947 C 9.5414289,12.533124 8.0101395,10.75579 7.4690835,9.2852444 7.2075895,8.5745272 7.0763545,8.5000042 6.0862321,8.5000042 c -0.7066834,0 -0.8348339,0.020115 -0.9697714,0.1523095 -0.1825969,0.1788625 -0.1604349,0.3712937 0.137549,1.1943937 0.4645475,1.2831756 1.5858719,3.1505396 2.4249528,4.0383216 0.7384384,0.781294 1.8632924,1.414871 2.7779535,1.564686 0.445876,0.07303 1.043312,0.04617 1.298765,-0.05838 z"/>
 <path style="fill:#ffffff" d="m 11.755681,14.891283 c 0.149841,-0.06132 0.27677,-0.139241 0.282065,-0.173141 0.0053,-0.03391 0.03181,-0.421652 0.05892,-0.861661 0.03971,-0.644552 0.07606,-0.816482 0.187004,-0.884723 0.239515,-0.147326 0.814689,0.233977 1.728786,1.14606 l 0.848361,0.846495 0.970926,0.02535 c 0.92163,0.02408 0.976974,0.01689 1.090126,-0.141381 0.237972,-0.332805 -0.03441,-0.790451 -1.279911,-2.150239 -0.527315,-0.575714 -0.786343,-0.916489 -0.76303,-1.003824 0.01942,-0.07273 0.301433,-0.527012 0.626704,-1.009527 1.125351,-1.6693856 1.437628,-2.4197468 1.08414,-2.6050588 -0.203866,-0.106875 -1.597863,-0.1018275 -1.840952,0.00669 -0.130461,0.058229 -0.299923,0.3024604 -0.520605,0.7503024 -0.435704,0.8842188 -1.275191,2.1113684 -1.621243,2.3699204 -0.216015,0.161398 -0.308214,0.190228 -0.409207,0.127953 -0.112171,-0.06917 -0.135848,-0.29714 -0.169646,-1.6334406 -0.03203,-1.2664678 -0.06102,-1.5666887 -0.157121,-1.6269787 -0.06559,-0.041195 -0.28607,-0.065433 -0.937283,-0.054769 -0.879613,0.014407 -1.3739321,0.034418 -1.4334301,0.193901 -0.03599,0.096451 0.17468,0.2439129 0.305568,0.4719969 0.2135261,0.3720948 0.2159731,0.3921628 0.2159731,1.7718454 0,1.234269 -0.0152,1.401202 -0.1315951,1.444947 C 9.5414289,12.033123 8.0101395,10.255789 7.4690835,8.7852436 7.2075895,8.0745262 7.0763545,8.0000032 6.0862321,8.0000032 c -0.7066834,0 -0.8348339,0.020115 -0.9697714,0.1523095 -0.1825969,0.1788625 -0.1604349,0.3712934 0.137549,1.1943937 0.4645475,1.2831756 1.5858719,3.1505396 2.4249528,4.0383216 0.7384384,0.781294 1.8632924,1.414871 2.7779535,1.564686 0.445876,0.07303 1.043312,0.04617 1.298765,-0.05838 z"/>
 <path style="opacity:0.2;fill:#ffffff" d="m 10.991211,1.0000024 c -0.655029,0 -1.3104801,0.044456 -1.7802731,0.1328125 C 5.0881324,1.9082188 1.9017724,5.0931065 1.1279305,9.2119154 1.031351,9.7259534 0.99577204,10.479454 1.0087899,11.216798 1.0182211,10.653433 1.053674,10.10714 1.1279305,9.7119154 1.9017724,5.5931064 5.0881324,2.4082187 9.2109379,1.6328148 c 0.9395851,-0.176713 2.6209601,-0.176713 3.5605461,0 3.589804,0.6751585 6.550016,3.2268447 7.706054,6.6425774 0.313734,0.9269862 0.487897,2.0012998 0.515625,3.0439448 C 21.017513,10.126213 20.841875,8.8518951 20.477538,7.7753922 19.3215,4.3596595 16.361288,1.8079733 12.771484,1.1328149 12.301691,1.0444584 11.646239,1.0000024 10.991211,1.0000024 Z M 2.6132819,16.987305 2.3046882,18.188477 c -0.1942243,0.755805 -0.2897922,1.458946 -0.2763672,1.547851 0.00825,0.05461 0.022562,0.09799 0.041992,0.135743 0.040034,-0.292436 0.1077276,-0.690758 0.234375,-1.183594 l 0.4013671,-1.561524 z"/>
</svg>

<svg xmlns="http://www.w3.org/2000/svg" width="22" height="22" version="1"><path style="opacity:.2" d="M10.132 21.462c-.403-.036-.955-.11-1.226-.167-.998-.207-2.464-.802-3.244-1.318l-.307-.203-1.56.488c-1.525.327-1.714.324-1.767-.026-.013-.088.083-.792.277-1.548l.401-1.56-.204-.31c-.584-.881-1.163-2.377-1.37-3.541-.174-.97-.176-2.652-.004-3.565a10.089 10.089 0 0 1 8.083-8.08c.94-.176 2.62-.176 3.56 0 3.59.676 6.55 3.227 7.706 6.643.519 1.532.665 3.47.378 4.995-.688 3.657-3.316 6.645-6.819 7.754a9.928 9.928 0 0 1-3.904.438z"/><path style="fill:#3792e1" d="M10.132 20.962c-.403-.036-.955-.11-1.226-.167-.998-.207-2.464-.802-3.244-1.318l-.307-.203-1.56.488c-1.525.327-1.714.324-1.767-.026-.013-.088.083-.792.277-1.548l.401-1.56-.204-.31c-.584-.881-1.163-2.377-1.37-3.541-.174-.97-.176-2.652-.004-3.565a10.089 10.089 0 0 1 8.083-8.08c.94-.176 2.62-.176 3.56 0 3.59.676 6.55 3.227 7.706 6.643.519 1.532.665 3.47.378 4.995-.688 3.657-3.316 6.645-6.819 7.754a9.928 9.928 0 0 1-3.904.438z"/><path style="opacity:.2" d="M11.756 15.391c.15-.061.276-.139.282-.173.005-.034.032-.422.059-.862.04-.644.076-.816.187-.884.24-.148.814.234 1.728 1.146l.849.846.97.026c.922.024.978.017 1.09-.142.239-.333-.034-.79-1.279-2.15-.527-.576-.786-.916-.763-1.004.02-.073.301-.527.627-1.01 1.125-1.669 1.437-2.42 1.084-2.604-.204-.107-1.598-.102-1.841.006-.13.059-.3.303-.52.75-.436.885-1.276 2.112-1.622 2.37-.216.162-.308.19-.41.129-.111-.07-.135-.298-.169-1.634-.032-1.266-.06-1.567-.157-1.627-.066-.041-.286-.065-.937-.055-.88.015-1.374.035-1.434.194-.036.097.175.244.306.472.213.372.216.392.216 1.772 0 1.234-.015 1.401-.132 1.445-.349.131-1.88-1.646-2.42-3.117-.262-.71-.394-.785-1.384-.785-.706 0-.835.02-.97.152-.182.18-.16.372.138 1.195.465 1.283 1.586 3.15 2.425 4.038.738.781 1.863 1.415 2.778 1.565.446.073 1.043.046 1.299-.059z"/><path style="fill:#fff" d="M11.756 14.891c.15-.061.276-.139.282-.173.005-.034.032-.422.059-.862.04-.644.076-.816.187-.884.24-.148.814.234 1.728 1.146l.849.846.97.026c.922.024.978.017 1.09-.142.239-.333-.034-.79-1.279-2.15-.527-.576-.786-.916-.763-1.004.02-.073.301-.527.627-1.01 1.125-1.669 1.437-2.42 1.084-2.604-.204-.107-1.598-.102-1.841.006-.13.059-.3.303-.52.75-.436.885-1.276 2.112-1.622 2.37-.216.162-.308.19-.41.128-.111-.069-.135-.297-.169-1.633-.032-1.266-.06-1.567-.157-1.627-.066-.041-.286-.065-.937-.055-.88.015-1.374.035-1.434.194-.036.097.175.244.306.472.213.372.216.392.216 1.772 0 1.234-.015 1.401-.132 1.445-.349.131-1.88-1.646-2.42-3.117C7.207 8.075 7.075 8 6.085 8c-.706 0-.835.02-.97.152-.182.18-.16.372.138 1.195.465 1.283 1.586 3.15 2.425 4.038.738.781 1.863 1.415 2.778 1.565.446.073 1.043.046 1.299-.059z"/><path style="opacity:.2;fill:#fff" d="M10.991 1c-.655 0-1.31.044-1.78.133a10.087 10.087 0 0 0-8.083 8.079c-.097.514-.132 1.267-.12 2.005.01-.564.046-1.11.12-1.505a10.087 10.087 0 0 1 8.083-8.08c.94-.176 2.62-.176 3.56 0 3.59.676 6.55 3.228 7.707 6.643.313.927.487 2.002.515 3.044.025-1.193-.151-2.467-.515-3.544C19.32 4.36 16.36 1.808 12.77 1.133c-.47-.089-1.125-.133-1.78-.133zM2.613 16.987l-.308 1.201c-.195.756-.29 1.46-.277 1.548a.43.43 0 0 0 .042.136c.04-.292.108-.69.235-1.184l.401-1.561z"/></svg>
